X:2841
T:Ingalls' Jingle
O:england
S:Bob McQuillen April 1974, via Phil Rowe
M:6/8
K:G
d|"G"g2d "D7"cBA|"G"Bcd "D7"cBA|"G"GAB "C"cde|"D7"d3 -d2d|
"G"g2d "D7"cBA|"G"Bcd "D7"cBA|"G"GAB "D7"AGF|"G"G3 -G::
FG|"D"A2G FGA|"G"B2A GAB|"C"cde "G"dcB|"D"A3 -AFG|"D"A2G FGA|
"G"B2A GBd|"G"dcB "D7"AGF|"G"G3 -GFG|"D"A2G FGA|"G"B2A GAB|"C"cde "G"dcB|
"D"A3 -Azd|"C"efg "G"dzd|"C"efg "G"dzg|"D7"fed cBA|"G"G3 -G||


